Adwaita++/mimetypes/scalable/application-users.svg

<svg height="256" viewBox="0 0 67.73 67.73" width="256" xmlns="http://www.w3.org/2000/svg" xmlns:xlink="http://www.w3.org/1999/xlink">
  <filter id="filter16020-3" color-interpolation-filters="sRGB" height="1.021433" width="1.027265" x="-.013633" y="-.010717">
    <feGaussianBlur stdDeviation="2.0004419"/>
  </filter>
  <g enable-background="new" stroke-width=".25" transform="matrix(.13297834 0 0 .13297834 .605824 28.61487660106)">
    <path d="m111.82842-178.55025h200l120.17158 119.671571.005 296.240039c.00031 17.728-14.44878 32.08839-32.17678 32.08839h-288c-17.72799 0-31.999992-14.272-31.999992-32v-384c0-17.728 14.272002-32 31.999992-32z" filter="url(#filter16020-3)" opacity=".4"/>
    <path d="m111.82842-179.67158h200l120.17158 119.67158.005 296.24003c.00031 17.728-14.44878 32.08839-32.17678 32.08839h-288c-17.727992 0-31.999992-14.272-31.999992-32v-384c0-17.728 14.272-32 31.999992-32z" fill="#f6f5f4"/>
    <path d="m311.82842-175.69243v88.000007c0 17.728 14.44211 31.693795 32.17011 31.693795l88.00147-.022223v-3.979149z" opacity=".25"/>
    <path d="m311.82842-179.67158v88.000008c0 17.728 14.44211 31.693795 32.17011 31.693795l88.00147-.022223z" fill="#deddda"/>
    <g fill="#3584e4">
      <g transform="matrix(5.55978298268 0 0 5.55978298268 -256.87786909164 -1436.15129904446)">
        <circle cx="86.634445" cy="259.46201" r="8.788684"/>
        <path d="m115.27344 138.55664a49.119225 49.119225 0 0 0 -44.355471 28.1543h55.095701a38.452214 38.452214 0 0 1 .07422-.10352 38.452214 38.452214 0 0 1 2.5332-2.89062 38.452214 38.452214 0 0 1 2.8086-2.62305 38.452214 38.452214 0 0 1 3.05664-2.33008 38.452214 38.452214 0 0 1 3.27344-2.01367 38.452214 38.452214 0 0 1 3.45898-1.67578 38.452214 38.452214 0 0 1 3.60937-1.32422 38.452214 38.452214 0 0 1 3.72266-.95508 38.452214 38.452214 0 0 1 1.00781-.1543 49.119225 49.119225 0 0 0 -34.28515-14.08398z" transform="matrix(.35785111 0 0 .35785111 45.383436 219.60692)"/>
      </g>
      <g transform="matrix(4.3523888194 0 0 4.3523888194 -65.38333129764 -1081.90973186301)">
        <circle cx="86.634445" cy="259.46201" r="8.788684"/>
        <path d="m86.634258 269.18928a17.577369 17.577369 0 0 0 -15.872501 10.07541h31.748433a17.577369 17.577369 0 0 0 -15.875932-10.07541z"/>
      </g>
      <circle cx="311.68345849488" cy="47.36981951885" r="38.2517699788"/>
    </g>
  </g>
</svg>

<?xml version="1.0" encoding="UTF-8" standalone="no"?>
<svg
   xmlns:dc="http://purl.org/dc/elements/1.1/"
   xmlns:cc="http://creativecommons.org/ns#"
   xmlns:rdf="http://www.w3.org/1999/02/22-rdf-syntax-ns#"
   xmlns:svg="http://www.w3.org/2000/svg"
   xmlns="http://www.w3.org/2000/svg"
   xmlns:sodipodi="http://sodipodi.sourceforge.net/DTD/sodipodi-0.dtd"
   xmlns:inkscape="http://www.inkscape.org/namespaces/inkscape"
   width="256"
   height="256"
   version="1.1"
   viewBox="0 0 67.73 67.73"
   id="svg37"
   sodipodi:docname="application-users.svg"
   inkscape:version="0.92.3 (2405546, 2018-03-11)">
  <metadata
     id="metadata41">
    <rdf:RDF>
      <cc:Work
         rdf:about="">
        <dc:format>image/svg+xml</dc:format>
        <dc:type
           rdf:resource="http://purl.org/dc/dcmitype/StillImage" />
        <dc:title />
      </cc:Work>
    </rdf:RDF>
  </metadata>
  <sodipodi:namedview
     pagecolor="#ffffff"
     bordercolor="#666666"
     borderopacity="1"
     objecttolerance="10"
     gridtolerance="10"
     guidetolerance="10"
     inkscape:pageopacity="0"
     inkscape:pageshadow="2"
     inkscape:window-width="1920"
     inkscape:window-height="1009"
     id="namedview39"
     showgrid="false"
     inkscape:zoom="3.2617188"
     inkscape:cx="18.548504"
     inkscape:cy="128"
     inkscape:window-x="0"
     inkscape:window-y="34"
     inkscape:window-maximized="1"
     inkscape:current-layer="g862" />
  <defs
     id="defs17">
    <linearGradient
       id="linearGradient4226"
       x1="529.655"
       x2="-35.31"
       y1="401.584"
       y2="119.093"
       gradientTransform="matrix(0 -.11988932 .11988589 0 .36278001 292.54831)"
       gradientUnits="userSpaceOnUse">
      <stop
         style="stop-color:#f2f2f2"
         offset="0"
         id="stop2" />
      <stop
         style="stop-color:#f9f9f9"
         offset="1"
         id="stop4" />
    </linearGradient>
    <linearGradient
       id="linearGradient4358"
       x1="88"
       x2="488"
       y1="88"
       y2="488"
       gradientUnits="userSpaceOnUse">
      <stop
         style="stop-color:#000000;stop-opacity:.58823532"
         offset="0"
         id="stop7" />
      <stop
         style="stop-color:#000000;stop-opacity:0"
         offset=".88"
         id="stop9" />
      <stop
         style="stop-color:#000000"
         offset="1"
         id="stop11" />
    </linearGradient>
    <filter
       id="filter4346"
       x="-.01"
       y="-.01"
       width="1.026"
       height="1.022"
       style="color-interpolation-filters:sRGB">
      <feGaussianBlur
         stdDeviation="2.12"
         id="feGaussianBlur14" />
    </filter>
    <filter
       inkscape:collect="always"
       style="color-interpolation-filters:sRGB"
       id="filter16020-3"
       x="-0.013632531"
       width="1.0272651"
       y="-0.010716653"
       height="1.0214334">
      <feGaussianBlur
         inkscape:collect="always"
         stdDeviation="2.0004419"
         id="feGaussianBlur16022-6" />
    </filter>
    <filter
       id="filter4346-3"
       x="-0.0099999998"
       y="-0.0099999998"
       width="1.026"
       height="1.022"
       style="color-interpolation-filters:sRGB">
      <feGaussianBlur
         stdDeviation="2.12"
         id="feGaussianBlur14-6" />
    </filter>
    <linearGradient
       id="linearGradient4226-5"
       x1="529.65503"
       x2="-35.310001"
       y1="401.58401"
       y2="119.093"
       gradientTransform="matrix(0,-0.11988932,-0.11988589,0,67.016455,292.5483)"
       gradientUnits="userSpaceOnUse">
      <stop
         style="stop-color:#76c22b"
         offset="0"
         id="stop2-6" />
      <stop
         style="stop-color:#a6d74f"
         offset="1"
         id="stop4-2" />
    </linearGradient>
    <clipPath
       clipPathUnits="userSpaceOnUse"
       id="clipPath987">
      <circle
         r="60"
         cy="236"
         cx="63.999996"
         id="circle989"
         style="display:inline;opacity:1;fill:#3584e4;fill-opacity:1;stroke:none;stroke-width:4.28571415;stroke-linecap:butt;stroke-linejoin:miter;stroke-miterlimit:4;stroke-dasharray:none;stroke-dashoffset:0;stroke-opacity:1;marker:none;marker-start:none;marker-mid:none;marker-end:none;paint-order:normal;enable-background:new" />
    </clipPath>
    <clipPath
       clipPathUnits="userSpaceOnUse"
       id="clipPath1106">
      <g
         style="display:inline;fill:#f5c211;stroke-width:0.93333334;enable-background:new"
         transform="matrix(0.26785714,0,0,0.26785714,-4.57143,224.21429)"
         id="g1112">
        <circle
           style="display:inline;opacity:1;fill:#f5c211;fill-opacity:1;stroke:none;stroke-width:0.04218px;stroke-linecap:butt;stroke-linejoin:miter;stroke-miterlimit:4;stroke-dasharray:none;stroke-dashoffset:0;stroke-opacity:1;marker:none;marker-start:none;marker-mid:none;marker-end:none;paint-order:normal;enable-background:new"
           id="circle1108"
           cx="256"
           cy="43.999989"
           r="224" />
        <circle
           r="224"
           cy="43.999989"
           cx="256"
           id="circle1110"
           style="display:inline;opacity:1;fill:#f5c211;fill-opacity:1;stroke:none;stroke-width:0.04218px;stroke-linecap:butt;stroke-linejoin:miter;stroke-miterlimit:4;stroke-dasharray:none;stroke-dashoffset:0;stroke-opacity:1;marker:none;marker-start:none;marker-mid:none;marker-end:none;paint-order:normal;enable-background:new" />
      </g>
    </clipPath>
    <clipPath
       clipPathUnits="userSpaceOnUse"
       id="clipPath2060">
      <circle
         r="60"
         cy="236"
         cx="63.999996"
         id="circle2058"
         style="display:inline;opacity:1;fill:#3584e4;fill-opacity:1;stroke:none;stroke-width:4.28571415;stroke-linecap:butt;stroke-linejoin:miter;stroke-miterlimit:4;stroke-dasharray:none;stroke-dashoffset:0;stroke-opacity:1;marker:none;marker-start:none;marker-mid:none;marker-end:none;paint-order:normal;enable-background:new" />
    </clipPath>
  </defs>
  <g
     transform="matrix(0.13297834,0,0,0.13297834,0.60582436,28.614877)"
     style="display:inline;stroke-width:0.25;enable-background:new"
     id="g17498">
    <g
       transform="translate(0,-3.4178172e-6)"
       style="display:inline;stroke-width:0.25;enable-background:new"
       id="g17498-7">
      <path
         style="display:inline;opacity:0.4;fill:#000000;fill-opacity:1;stroke:none;stroke-width:0.5;stroke-linejoin:round;stroke-miterlimit:4;stroke-dasharray:none;stroke-opacity:1;filter:url(#filter16020-3);enable-background:new"
         clip-path="none"
         d="m 111.82842,-178.55025 h 200 L 432,-58.878679 432.005,237.36136 c 3.1e-4,17.728 -14.44878,32.08839 -32.17678,32.08839 h -288 c -17.72799,0 -31.999992,-14.272 -31.999992,-32 v -384 c 0,-17.728 14.272002,-32 31.999992,-32 z"
         id="path6869-5"
         inkscape:connector-curvature="0"
         sodipodi:nodetypes="sccssssss" />
      <path
         sodipodi:nodetypes="sccssssss"
         inkscape:connector-curvature="0"
         id="rect2069-3"
         d="m 111.82842,-179.67158 h 200 L 432,-60 l 0.005,296.24003 c 3.1e-4,17.728 -14.44878,32.08839 -32.17678,32.08839 h -288 c -17.727992,0 -31.999992,-14.272 -31.999992,-32 v -384 c 0,-17.728 14.272,-32 31.999992,-32 z"
         clip-path="none"
         style="display:inline;opacity:1;fill:#f6f5f4;fill-opacity:1;stroke:none;stroke-width:0.5;stroke-linejoin:round;stroke-miterlimit:4;stroke-dasharray:none;stroke-opacity:1;enable-background:new" />
      <path
         inkscape:connector-curvature="0"
         style="display:inline;opacity:0.25;vector-effect:none;fill:#000000;fill-opacity:1;stroke:none;stroke-width:0.5;stroke-linecap:butt;stroke-linejoin:round;stroke-miterlimit:4;stroke-dasharray:none;stroke-dashoffset:0;stroke-opacity:1;enable-background:new"
         d="m 311.82842,-175.69243 v 88.000007 c 0,17.728 14.44211,31.693795 32.17011,31.693795 L 432,-56.020851 V -60 Z"
         id="path836"
         sodipodi:nodetypes="cscccc" />
      <path
         sodipodi:nodetypes="csccc"
         id="rect26812-5"
         d="m 311.82842,-179.67158 v 88.000008 c 0,17.728 14.44211,31.693795 32.17011,31.693795 L 432,-60 Z"
         style="display:inline;opacity:1;vector-effect:none;fill:#deddda;fill-opacity:1;stroke:none;stroke-width:0.5;stroke-linecap:butt;stroke-linejoin:round;stroke-miterlimit:4;stroke-dasharray:none;stroke-dashoffset:0;stroke-opacity:1;enable-background:new"
         inkscape:connector-curvature="0" />
      <g
         transform="matrix(7.5200217,0,0,7.5200217,-389.9314,-1927.6428)"
         id="g37">
        <g
           transform="matrix(0.52451546,0,0,0.52451546,104.20848,223.31715)"
           style="display:inline;stroke-width:0.50440878;enable-background:new"
           id="g28488" />
        <g
           id="g873"
           transform="matrix(0.73933071,0,0,0.73933071,17.762663,64.228819)">
          <g
             id="g862"
             transform="translate(0.65827414,4.266475)">
            <g
               id="g920"
               transform="translate(-0.75217691,-2.7395471)">
              <circle
                 r="8.7886839"
                 cy="259.46201"
                 cx="86.634445"
                 id="path911"
                 style="opacity:1;fill:#3584e4;fill-opacity:1;stroke:none;stroke-width:1.90509236;stroke-linecap:butt;stroke-linejoin:round;stroke-miterlimit:4;stroke-dasharray:none;stroke-opacity:1" />
              <path
                 style="opacity:1;fill:#3584e4;fill-opacity:1;stroke:none;stroke-width:10.64740372;stroke-linecap:butt;stroke-linejoin:round;stroke-miterlimit:4;stroke-dasharray:none;stroke-opacity:1"
                 d="M 115.27344 138.55664 A 49.119225 49.119225 0 0 0 70.917969 166.71094 L 126.01367 166.71094 A 38.452214 38.452214 0 0 1 126.08789 166.60742 A 38.452214 38.452214 0 0 1 128.62109 163.7168 A 38.452214 38.452214 0 0 1 131.42969 161.09375 A 38.452214 38.452214 0 0 1 134.48633 158.76367 A 38.452214 38.452214 0 0 1 137.75977 156.75 A 38.452214 38.452214 0 0 1 141.21875 155.07422 A 38.452214 38.452214 0 0 1 144.82812 153.75 A 38.452214 38.452214 0 0 1 148.55078 152.79492 A 38.452214 38.452214 0 0 1 149.55859 152.64062 A 49.119225 49.119225 0 0 0 115.27344 138.55664 z "
                 id="circle913"
                 transform="matrix(0.35785111,0,0,0.35785111,45.383436,219.60692)" />
            </g>
            <g
               transform="matrix(0.7828343,0,0,0.7828343,33.690631,60.975452)"
               id="g859">
              <circle
                 style="opacity:1;fill:#3584e4;fill-opacity:1;stroke:none;stroke-width:1.90509236;stroke-linecap:butt;stroke-linejoin:round;stroke-miterlimit:4;stroke-dasharray:none;stroke-opacity:1"
                 id="circle855"
                 cx="86.634445"
                 cy="259.46201"
                 r="8.7886839" />
              <path
                 style="opacity:1;fill:#3584e4;fill-opacity:1;stroke:none;stroke-width:3.81018519;stroke-linecap:butt;stroke-linejoin:round;stroke-miterlimit:4;stroke-dasharray:none;stroke-opacity:1"
                 d="M 86.634258,269.18928 A 17.577369,17.577369 0 0 0 70.761757,279.26469 H 102.51019 A 17.577369,17.577369 0 0 0 86.634258,269.18928 Z"
                 id="path857"
                 inkscape:connector-curvature="0" />
            </g>
            <g
               id="g868"
               transform="matrix(0.7828343,0,0,0.7828343,33.690631,60.975452)">
              <circle
                 r="8.7886839"
                 cy="259.46201"
                 cx="86.634445"
                 id="circle864"
                 style="opacity:1;fill:#3584e4;fill-opacity:1;stroke:none;stroke-width:1.90509236;stroke-linecap:butt;stroke-linejoin:round;stroke-miterlimit:4;stroke-dasharray:none;stroke-opacity:1" />
            </g>
          </g>
        </g>
      </g>
    </g>
  </g>
</svg>
